gesture-swipe-up.svg

<svg fill="currentColor" viewBox="0 0 24 24"><path d="M10 9a1 1 0 0 1 1-1 1 1 0 0 1 1 1v4.47l1.21.13 4.94 2.19c.53.24.85.77.85 1.35v4.36c-.03.82-.68 1.47-1.5 1.5H11c-.38 0-.74-.15-1-.43l-4.9-4.2.74-.77c.19-.21.46-.32.74-.32h.22L10 19zM7 6 4 3 1 6h2v6h2V6z"/></svg>

<svg  viewBox="0 0 24 24" fill="currentColor"><path  d="M10,9A1,1 0 0,1 11,8A1,1 0 0,1 12,9V13.47L13.21,13.6L18.15,15.79C18.68,16.03 19,16.56 19,17.14V21.5C18.97,22.32 18.32,22.97 17.5,23H11C10.62,23 10.26,22.85 10,22.57L5.1,18.37L5.84,17.6C6.03,17.39 6.3,17.28 6.58,17.28H6.8L10,19V9M7,6L4,3L1,6H3V12H5V6H7Z"/></svg>
